src/images/icons/icon-modal-cross.svg

<svg width="16" height="16" viewBox="0 0 16 16" fill="none" xmlns="http://www.w3.org/2000/svg">
<path d="M15.326 2.30495L2.69849 14.817C2.38165 15.131 1.85023 15.114 1.51227 14.7791C1.17431 14.4442 1.15717 13.9177 1.474 13.6037L14.1015 1.09166C14.4184 0.77772 14.9498 0.794706 15.2878 1.12958C15.6257 1.46445 15.6429 1.99101 15.326 2.30495Z" fill="white"/>
<path d="M14.0862 14.9732L1.47483 2.44484C1.1584 2.13049 1.17552 1.60323 1.51305 1.26793C1.85058 0.932622 2.38132 0.915614 2.69776 1.22996L15.3091 13.7583C15.6256 14.0727 15.6084 14.5999 15.2709 14.9352C14.9334 15.2705 14.4026 15.2876 14.0862 14.9732Z" fill="white"/>
</svg>

<svg width="16" height="16" fill="none" xmlns="http://www.w3.org/2000/svg">
  <path d="M15.33 2.3 2.7 14.82c-.32.31-.85.3-1.19-.04-.34-.34-.35-.86-.04-1.18L14.1 1.1c.32-.32.85-.3 1.19.03.34.33.35.86.04 1.17Z" fill="#fff"/>
  <path d="M14.09 14.97 1.47 2.44c-.31-.31-.3-.84.04-1.17.34-.34.87-.35 1.19-.04l12.6 12.53c.33.31.3.84-.03 1.18-.34.33-.87.35-1.18.03Z" fill="#fff"/>
</svg>
